X: 20
T: Gavot by Mr Maclean
%R: govotte, march
B: Stewart "A Select Collection of Airs, Jigs, Marches and Reels", ca.1784, p.10 #20
F: http://imslp.org/wiki/A_Select_Collection_of_Airs,_Jigs,_Marches_and_Reels_%28Various%29
Z: 2017 John Chambers <jc:trillian.mit.edu>
M: C|
L: 1/8
K: G
%%slurgraces 1
%%graceslurs 1
|:\
G2A2 B2c2 | d6 e2 | d2cB c2BA | B2AG A2D2 |\
G2A2 B2c2 | d6 e2 | d2cB c2B2 | {B2}A8 :|
|:\
A2FG A2B2 | c6 c2 | B2GF GABc | d6 d2 |\
e2c2 G2e2 | d2ef g2c2 | B4 TA4 | G8 :|

%%sep 1 1 500
%%sep 1 1 500

